X:1
T:Goofy Does the Schottische
C:Bob Mills 1988
M:C
K:D
"D"d2 A>F D>E"Am"=C2|"G"B,>D E>G "C"=c2 A>^c|"D"d2 A>F "F"D>E =F2|"A"A>d c>e "D"d4:|
"A"e2 e>c A>c e>g|"D"f>d e>c "G"d>B G>B|
"A"e2 e>c A>c e>g|"D"f>d "A"e>c "D"d4:|
